src/img/features-bg.svg

<svg xmlns="http://www.w3.org/2000/svg" width="1440" height="1560" fill="none"><g clip-path="url(#a)"><path d="M0 0h1440v1560H0z"/><circle r="38.834" fill="#FFD771" transform="matrix(-1 0 0 1 1355.83 1132.83)"/><circle r="10.8" stroke="#FFD771" stroke-width="1.964" transform="matrix(-1 0 0 1 1258.78 1094.78)"/><path fill="#41D2CA" d="m1371.69 1136.66-31.99 18v-36l31.99 18Z"/><path fill="#07878E" d="m1409.98 1136.66-45.12 25.58v-51.16l45.12 25.58Z"/><circle cx="1436.64" cy="1197.98" r="14.333" fill="#FFD771" stroke="#FFD771" stroke-width="1.373"/><circle cx="1236.24" cy="1150.73" r="8.239" fill="#FFD771"/><path fill="#41D2CA" d="m1272 1188.45-17.41 10.05v-20.1l17.41 10.05Z"/><path fill="#07878E" d="m1293.24 1188.45-24.64 14.22v-28.45l24.64 14.23Z"/><circle cx="70.866" cy="634.828" r="6.535" fill="#FFD771"/><circle r="33.803" fill="#FFD771" transform="matrix(-1 0 0 1 20.803 588.778)"/><circle r="6.482" stroke="#FFD771" stroke-width="1.955" transform="matrix(-1 0 0 1 33.003 534.46)"/><path fill="#41D2CA" d="m117.701 615.223-22.056 12.262V602.96l22.056 12.263Z"/><path fill="#07878E" d="m143.841 615.223-31.042 17.922v-35.844l31.042 17.922Z"/><circle cx="150.92" cy="584.182" r="6.099" stroke="#FFD771" stroke-width="1.961"/></g><defs><clipPath id="a"><path fill="#fff" d="M0 0h1440v1560H0z"/></clipPath></defs></svg>

<svg width="1440" height="1560" viewBox="0 0 1440 1560" fill="none" xmlns="http://www.w3.org/2000/svg">
<g clip-path="url(#clip0_235_3462)">
<rect width="1440" height="1560" fill="white"/>
<circle r="38.8342" transform="matrix(-1 0 0 1 1355.83 1132.83)" fill="#FFD771"/>
<circle r="10.8005" transform="matrix(-1 0 0 1 1258.78 1094.78)" stroke="#FFD771" stroke-width="1.96372"/>
<path d="M1371.69 1136.66L1339.7 1154.66V1118.66L1371.69 1136.66Z" fill="#41D2CA"/>
<path d="M1409.98 1136.66L1364.86 1162.24V1111.08L1409.98 1136.66Z" fill="#07878E"/>
<circle cx="1436.64" cy="1197.98" r="14.3329" fill="#FFD771" stroke="#FFD771" stroke-width="1.37321"/>
<circle cx="1236.24" cy="1150.73" r="8.23927" fill="#FFD771"/>
<path d="M1272 1188.45L1254.59 1198.5V1178.4L1272 1188.45Z" fill="#41D2CA"/>
<path d="M1293.24 1188.45L1268.6 1202.67V1174.22L1293.24 1188.45Z" fill="#07878E"/>
<circle cx="70.8661" cy="634.828" r="6.53502" fill="#FFD771"/>
<circle r="33.8032" transform="matrix(-1 0 0 1 20.8032 588.778)" fill="#FFD771"/>
<circle r="6.48242" transform="matrix(-1 0 0 1 33.0029 534.46)" stroke="#FFD771" stroke-width="1.95519"/>
<path d="M117.701 615.223L95.645 627.485V602.96L117.701 615.223Z" fill="#41D2CA"/>
<path d="M143.841 615.223L112.799 633.145V597.301L143.841 615.223Z" fill="#07878E"/>
<circle cx="150.92" cy="584.182" r="6.09936" stroke="#FFD771" stroke-width="1.96051"/>
</g>
<defs>
<clipPath id="clip0_235_3462">
<rect width="1440" height="1560" fill="white"/>
</clipPath>
</defs>
</svg>
